X:229
T:McFarley's
Z: id:dc-reel-210
M:C
L:1/8
K:D Major
(3ABc|d2D2 EDB,E|DEFA BAFA|dBcA BGAF|EGFD EDB,2|!
A,DD2 EDB,E|DEFA BAFA|d2ef dBAF|EDEF D2:|!
ag|fgab afde|fdad bdad|efga ge=cd|e=cgc acgc|!
fgaf bagf|gfeg fdBc|dBAF ABdB|AFEF D2:|!

